X: 4
T: Ding dong Merrily On High
C: Arr. Edw Huws-Jones
M: 4/4
K: D
L: 1/4
V: 1 name="Vln I" snm="" clef=treble
D2 A2 | D E F F | G F E E | D2 D2 |
D2 A2 | D E F F | G F E E | D2 D2 | D2 D2 |
E2 E2 | F2 F2 | G2 A2 | D2 D2 | E2 F2 |
G F E E | D2 D2 | D2 D2 | E2 E2 | F2 F2 |
G2 A2 | D2 D2 | E2 F2 | G F E E | D2 D2 |]


